!!!SOCIAL_FUNCTION:	miscellaneous songs
!!!PDT:	1918

Specific Region: Dakotas, Minnesota, Montana, Nebraska
!!!REG: Dakotas and Montana
!!!LING_GROUP: Siouan
!!!LANG: Tone
!!!OTL@ENG: Song of the Ticketless Society
!!!ONM: No. 237
**kern
*Imale
*clefF4
*k[f#c#]
*M2/4
*>[A,B,B]
*>norep[A,B]
*>A
*MM108
8d
8d
4d
=2
8d
8d
8d
8d
=3
4d
[4B
=4
8B]
8c#
8c#
8c#
=5||
*M3/4
2.B
=6||
*M2/4
8B
8B
8B
(8B
=7||
*M3/4
4B)
2F#
*>B
=8!|:
8B
8B
8c#
8c#
4c#
=9
4c#
8c#
8c#
4B
=10
4A
8A
8A
4G
=11||
*M2/4
4E
8E
8E
=12||
*M3/4
4D
8D
[8D
8D]
8D
=13
8D
8D
4E
4E
=14||
*M2/4
8F#
8F#
4E
=15
16E
[8.D
8D]
8D
=16
4D
4BB
=17
8D
8D
4D
=18||
*M3/4
4D
8D
8E
4D
=19
8BB
8BB
2BB
=20||
*M2/4
8BB
8BB
8BB
[8BB
=21
2BB]
==:|!
*-
!!!CNT: Native American -- Sioux
!!!MRD: 1911/07//-1914///
!!!OCL: Frances Densmore
!!!YOR1: Teton Sioux Music, Bulletin 61,
!!!YOR2: Bureau of American Ethnology, Smithsonian Institution
!!!PPR: Government Printing Office
!!!PPP: Washington, D.C.
!!!PDT: 1918///
!!!ENC: Craig Stuart Sapp
!!!END: 2002/03/25/
!!!EEV: 2002/03/31/
!!!AGN: Sisseton Song
!!!MPN@@SIO: Chekpa'
!!!MPN@ENG: Twin
!!!TXO: Santee Sioux
!!!MLC: Sisseton, South Dakota, United States of America
!!!ARL: 45.6/-97.1:
!!!catalog: Catalogue No. 678
!!!PPG: 515
!!!EFL: 242/245
!!!VTS: 1074624170
